X:53
T:Pacific Slope Reel
S:Bernie Waugh
R:Reel
M:2/4
L:1/16
K:A
|:AF|\
"A"EA2A ABcd|eaab a=gef|"C"(3=gfe dB =GABc|"G"(3dcB cA "Em"(3Bcd AF|
"A"EA2A ABcd|eaab a=gef|"C"(3=gfe dB "G"=GABd|"Em"cABG "A"A2:|
|:ed|\
"A"ca2c acac|"Bm"Bb2B b2ba|"E"gbeg bege|"A"ac'ea c'2(c'2|
e'2) (3efg a2 ea|"D"fedf "A"ecAe|"D"fagf "E"edcB|"A"Aaec A2:|

